symbolic/32x32/apps/rkward.svg

<svg xmlns="http://www.w3.org/2000/svg" width="32" height="32" x="0" y="0" version="1">
 <path style="opacity:0.2" d="M 13,12 C 9.7776088,12 6.856834,12.699625 4.6894531,13.876953 3.6057628,14.465683 2.7108865,15.172438 2.0585938,16.009766 1.4063077,16.847096 1,17.840399 1,18.921875 v 2.15625 c 0,1.081476 0.4063076,2.074779 1.0585938,2.912109 0.6522927,0.837328 1.547169,1.546102 2.6308593,2.134766 C 6.856834,27.302328 9.7776088,28 13,28 c 3.222328,0 6.14318,-0.697672 8.310547,-1.875 1.083716,-0.588664 1.978548,-1.297438 2.630859,-2.134766 C 24.593656,23.152904 25,22.159601 25,21.078125 v -2.15625 C 25,17.840399 24.593656,16.847096 23.941406,16.009766 23.289095,15.172438 22.394263,14.465683 21.310547,13.876953 19.14318,12.699625 16.222328,12 13,12 Z m 3.017578,4 c 1.830587,0 3.502733,0.467352 4.775391,1.1875 C 21.923358,17.827165 22.640582,18.673744 23,19.5 22.694608,20.125158 22.070733,20.933185 21.023438,21.609375 19.802329,22.397707 18.116865,23 16.017578,23 13.915686,23 12.205423,22.404982 10.976562,21.630859 9.8841018,20.942669 9.2559265,20.104984 9,19.5 9.2174756,18.767481 9.9077562,17.879541 11.107422,17.210938 12.422377,16.47805 14.189143,16 16.017578,16 Z"/>
 <path style="fill:#3773f2" d="M 13 11 C 9.7776088 11 6.856834 11.699625 4.6894531 12.876953 C 3.6057628 13.465683 2.7108865 14.172438 2.0585938 15.009766 C 1.4063077 15.847096 1 16.840399 1 17.921875 L 1 20.078125 C 1 21.159601 1.4063076 22.152904 2.0585938 22.990234 C 2.7108865 23.827562 3.6057628 24.536336 4.6894531 25.125 C 6.856834 26.302328 9.7776088 27 13 27 C 16.222328 27 19.14318 26.302328 21.310547 25.125 C 22.394263 24.536336 23.289095 23.827562 23.941406 22.990234 C 24.593656 22.152904 25 21.159601 25 20.078125 L 25 17.921875 C 25 16.840399 24.593656 15.847096 23.941406 15.009766 C 23.289095 14.172438 22.394263 13.465683 21.310547 12.876953 C 19.14318 11.699625 16.222328 11 13 11 z M 16.017578 15 C 17.848165 15 19.520311 15.467352 20.792969 16.1875 C 21.923358 16.827165 22.640582 17.673744 23 18.5 C 22.694608 19.125158 22.070733 19.933185 21.023438 20.609375 C 19.802329 21.397707 18.116865 22 16.017578 22 C 13.915686 22 12.205423 21.404982 10.976562 20.630859 C 9.8841018 19.942669 9.2559265 19.104984 9 18.5 C 9.2174756 17.767481 9.9077562 16.879541 11.107422 16.210938 C 12.422377 15.47805 14.189143 15 16.017578 15 z"/>
 <path style="fill:#ffffff;opacity:0.1" d="M 13 11 C 9.7776088 11 6.856834 11.699625 4.6894531 12.876953 C 3.6057628 13.465683 2.7108865 14.172438 2.0585938 15.009766 C 1.4063076 15.847096 1 16.840399 1 17.921875 L 1 18.921875 C 1 17.840399 1.4063076 16.847096 2.0585938 16.009766 C 2.7108865 15.172438 3.6057628 14.465683 4.6894531 13.876953 C 6.856834 12.699625 9.7776088 12 13 12 C 16.222328 12 19.14318 12.699625 21.310547 13.876953 C 22.394263 14.465683 23.289095 15.172438 23.941406 16.009766 C 24.593656 16.847096 25 17.840399 25 18.921875 L 25 17.921875 C 25 16.840399 24.593656 15.847096 23.941406 15.009766 C 23.289095 14.172438 22.394263 13.465683 21.310547 12.876953 C 19.14318 11.699625 16.222328 11 13 11 z M 9.2421875 18.951172 C 9.135122 19.139578 9.0521616 19.324305 9 19.5 C 9.2559265 20.104984 9.8841023 20.942669 10.976562 21.630859 C 12.205424 22.404982 13.915686 23 16.017578 23 C 18.116865 23 19.802329 22.397707 21.023438 21.609375 C 22.070732 20.933185 22.694608 20.125158 23 19.5 C 22.924959 19.327491 22.825489 19.154635 22.71875 18.982422 C 22.365761 19.509401 21.817268 20.096835 21.023438 20.609375 C 19.802329 21.397707 18.116865 22 16.017578 22 C 13.915686 22 12.205424 21.404982 10.976562 20.630859 C 10.134571 20.100451 9.574723 19.484206 9.2421875 18.951172 z"/>
 <path style="opacity:0.2" d="M 15.507812 5 C 15.218262 5.031021 14.998316 5.275141 15 5.5644531 L 15 21.945312 C 15.329394 21.976691 15.665828 22 16.017578 22 C 18.107635 22 19.786055 21.40237 21.005859 20.619141 L 21.005859 18.056641 L 22.353516 18.056641 C 23.045715 18.056641 23.519262 18.207039 23.873047 18.453125 C 24.558431 19.265172 24.780055 20.583655 24.904297 21.917969 C 25.031071 23.278775 24.945312 24.396484 24.945312 24.396484 C 24.934062 24.552913 24.987992 24.707667 25.095703 24.822266 C 25.203405 24.936928 25.353869 25.000387 25.511719 25 L 30.367188 25 C 30.665498 25.000785 30.914203 24.77221 30.935547 24.476562 C 31.04124 23.066257 30.853487 21.330408 30.490234 19.783203 C 30.134178 18.267065 29.67104 16.961258 28.828125 16.257812 C 28.811365 16.240803 28.804009 16.213966 28.787109 16.197266 C 28.548226 15.961367 28.28747 15.762295 28.015625 15.59375 C 28.735003 15.21573 29.375445 14.779485 29.822266 14.185547 C 30.520634 13.270118 30.999934 11.882008 31 10.544922 C 30.999934 8.6234355 30.341357 7.0810455 29.013672 6.1347656 C 28.171279 5.5300739 27.061154 5.2314677 25.808594 5.0273438 C 25.555887 4.9862097 25.30751 5.1182154 25.201172 5.3496094 L 23.578125 8.6113281 C 23.453427 8.8740403 23.551595 9.1892613 23.802734 9.3378906 C 24.046872 9.4792363 24.280363 9.6668716 24.511719 9.8613281 C 24.511589 9.8680381 24.511589 9.8741584 24.511719 9.8808594 C 24.798158 10.11721 25.089844 10.740198 25.089844 11.503906 C 25.000924 12.999077 23.438299 12.963959 22.521484 12.970703 L 21.005859 12.970703 L 21.005859 5.5644531 C 21.005793 5.2529948 20.770524 5.0000322 20.457031 5 L 15.568359 5 C 15.548039 4.99892 15.528063 4.99892 15.507812 5 z"/>
 <path style="fill:#4f4f4f" d="M 15.507812 4 C 15.218261 4.031021 14.998316 4.275141 15 4.5644531 L 15 21.945312 C 15.329394 21.976691 15.665828 22 16.017578 22 C 18.107635 22 19.786055 21.40237 21.005859 20.619141 L 21.005859 17.056641 L 22.353516 17.056641 C 23.045715 17.056641 23.519262 17.207039 23.873047 17.453125 C 24.558431 18.265172 24.780055 19.583655 24.904297 20.917969 C 25.031071 22.278775 24.945313 23.396484 24.945312 23.396484 C 24.934062 23.552913 24.987988 23.707667 25.095703 23.822266 C 25.203405 23.936928 25.353869 24.000387 25.511719 24 L 30.367188 24 C 30.665498 24.000785 30.914203 23.77221 30.935547 23.476562 C 31.04124 22.066257 30.853488 20.330408 30.490234 18.783203 C 30.134178 17.267065 29.67104 15.961257 28.828125 15.257812 C 28.811365 15.240802 28.804009 15.213966 28.787109 15.197266 C 28.548226 14.961367 28.28747 14.762295 28.015625 14.59375 C 28.735003 14.21573 29.375445 13.779485 29.822266 13.185547 C 30.520635 12.270114 30.999934 10.882008 31 9.5449219 C 30.999934 7.6234356 30.341357 6.0810455 29.013672 5.1347656 C 28.171279 4.5300739 27.061154 4.2314678 25.808594 4.0273438 C 25.555887 3.9862097 25.30751 4.1182154 25.201172 4.3496094 L 23.578125 7.6113281 C 23.453427 7.8740403 23.551593 8.1892613 23.802734 8.3378906 C 24.046872 8.4792363 24.280363 8.6668716 24.511719 8.8613281 C 24.511589 8.8680381 24.511589 8.8741584 24.511719 8.8808594 C 24.798158 9.1172097 25.089844 9.7401982 25.089844 10.503906 C 25.000927 11.999077 23.438299 11.963959 22.521484 11.970703 L 21.005859 11.970703 L 21.005859 4.5644531 C 21.005793 4.2529948 20.770524 4.0000322 20.457031 4 L 15.568359 4 C 15.548039 3.99892 15.528062 3.99892 15.507812 4 z"/>
 <path style="opacity:0.1;fill:#ffffff" d="M 15.507812 4 C 15.218262 4.031021 14.998316 4.275141 15 4.5644531 L 15 5.5644531 C 14.998316 5.275141 15.218262 5.031021 15.507812 5 C 15.528063 4.99892 15.548039 4.99892 15.568359 5 L 20.457031 5 C 20.770524 5.0000322 21.005793 5.2529948 21.005859 5.5644531 L 21.005859 4.5644531 C 21.005793 4.2529948 20.770524 4.0000322 20.457031 4 L 15.568359 4 C 15.548039 3.99892 15.528062 3.99892 15.507812 4 z M 25.621094 4.0273438 C 25.439642 4.0579635 25.280925 4.1760639 25.201172 4.3496094 L 23.578125 7.6113281 C 23.465733 7.8481133 23.541706 8.1215287 23.740234 8.2832031 L 25.201172 5.3496094 C 25.30751 5.1182154 25.555887 4.9862097 25.808594 5.0273438 C 27.061154 5.2314677 28.171279 5.5300739 29.013672 6.1347656 C 30.185999 6.9703173 30.83444 8.2710352 30.970703 9.8867188 C 30.977492 9.7724929 30.999994 9.6587313 31 9.5449219 C 30.999934 7.6234356 30.341357 6.0810455 29.013672 5.1347656 C 28.171279 4.5300739 27.061154 4.2314678 25.808594 4.0273438 C 25.745417 4.0170602 25.681578 4.0171372 25.621094 4.0273438 z M 25.015625 10.876953 C 24.699547 11.980713 23.351429 11.964598 22.521484 11.970703 L 21.005859 11.970703 L 21.005859 12.970703 L 22.521484 12.970703 C 23.438299 12.963959 25.000924 12.999077 25.089844 11.503906 C 25.089844 11.27864 25.05876 11.071422 25.015625 10.876953 z M 28.744141 15.158203 C 28.513067 15.312164 28.271924 15.459069 28.015625 15.59375 C 28.28747 15.762295 28.548226 15.961367 28.787109 16.197266 C 28.804009 16.213966 28.811365 16.240803 28.828125 16.257812 C 29.67104 16.961258 30.134178 18.267065 30.490234 19.783203 C 30.741839 20.854865 30.899342 22.011946 30.943359 23.09375 C 30.994564 21.757134 30.822208 20.197176 30.490234 18.783203 C 30.134178 17.267065 29.67104 15.961258 28.828125 15.257812 C 28.811365 15.240803 28.804009 15.213966 28.787109 15.197266 C 28.773115 15.183446 28.758283 15.171771 28.744141 15.158203 z M 24.964844 22.878906 C 24.956571 23.121785 24.945313 23.396484 24.945312 23.396484 C 24.940503 23.463364 24.954529 23.528537 24.972656 23.591797 C 24.974452 23.381426 24.973687 23.146469 24.964844 22.878906 z"/>
</svg>

<svg xmlns="http://www.w3.org/2000/svg" width="32" height="32" version="1"><path style="opacity:.2" d="M13 12c-3.222 0-6.143.7-8.31 1.877-1.084.589-1.98 1.295-2.631 2.133C1.406 16.847 1 17.84 1 18.922v2.156c0 1.082.406 2.075 1.059 2.912.652.838 1.547 1.546 2.63 2.135C6.857 27.302 9.778 28 13 28c3.222 0 6.143-.698 8.31-1.875 1.084-.589 1.98-1.297 2.631-2.135.653-.837 1.059-1.83 1.059-2.912v-2.156c0-1.082-.406-2.075-1.059-2.912-.652-.838-1.547-1.544-2.63-2.133C19.143 12.7 16.222 12 13 12zm3.018 4c1.83 0 3.502.467 4.775 1.188 1.13.64 1.848 1.486 2.207 2.312-.305.625-.93 1.433-1.977 2.11-1.22.788-2.906 1.39-5.005 1.39-2.102 0-3.813-.595-5.041-1.37C9.884 20.944 9.256 20.106 9 19.5c.217-.733.908-1.62 2.107-2.29 1.315-.732 3.082-1.21 4.91-1.21z"/><path style="fill:#3773f2" d="M13 11c-3.222 0-6.143.7-8.31 1.877-1.084.589-1.98 1.295-2.631 2.133C1.406 15.847 1 16.84 1 17.922v2.156c0 1.082.406 2.075 1.059 2.912.652.838 1.547 1.546 2.63 2.135C6.857 26.302 9.778 27 13 27c3.222 0 6.143-.698 8.31-1.875 1.084-.589 1.98-1.297 2.631-2.135.653-.837 1.059-1.83 1.059-2.912v-2.156c0-1.082-.406-2.075-1.059-2.912-.652-.838-1.547-1.544-2.63-2.133C19.143 11.7 16.222 11 13 11zm3.018 4c1.83 0 3.502.467 4.775 1.188 1.13.64 1.848 1.486 2.207 2.312-.305.625-.93 1.433-1.977 2.11-1.22.788-2.906 1.39-5.005 1.39-2.102 0-3.813-.595-5.041-1.37C9.884 19.944 9.256 19.106 9 18.5c.217-.733.908-1.62 2.107-2.29 1.315-.732 3.082-1.21 4.91-1.21z"/><path style="fill:#fff;opacity:.1" d="M13 11c-3.222 0-6.143.7-8.31 1.877-1.084.589-1.98 1.295-2.631 2.133C1.406 15.847 1 16.84 1 17.922v1c0-1.082.406-2.075 1.059-2.912.652-.838 1.547-1.544 2.63-2.133C6.857 12.7 9.778 12 13 12c3.222 0 6.143.7 8.31 1.877 1.084.589 1.98 1.295 2.631 2.133.653.837 1.059 1.83 1.059 2.912v-1c0-1.082-.406-2.075-1.059-2.912-.652-.838-1.547-1.544-2.63-2.133C19.143 11.7 16.222 11 13 11zm-3.758 7.951c-.107.189-.19.373-.242.549.256.605.884 1.443 1.977 2.13 1.228.775 2.939 1.37 5.04 1.37 2.1 0 3.785-.602 5.006-1.39 1.048-.677 1.672-1.485 1.977-2.11a4.136 4.136 0 0 0-.281-.518c-.353.527-.902 1.115-1.696 1.627-1.22.789-2.906 1.391-5.005 1.391-2.102 0-3.813-.595-5.041-1.37-.842-.53-1.402-1.146-1.735-1.679z"/><path style="opacity:.2" d="M15.508 5a.567.567 0 0 0-.508.564v16.381c.33.032.666.055 1.018.055 2.09 0 3.768-.598 4.988-1.38v-2.563h1.348c.692 0 1.165.15 1.519.396.685.812.907 2.13 1.031 3.465.127 1.36.041 2.478.041 2.478a.563.563 0 0 0 .567.604h4.855a.567.567 0 0 0 .569-.523c.105-1.41-.083-3.147-.446-4.694-.356-1.516-.819-2.822-1.662-3.525-.017-.017-.024-.044-.04-.06a4.373 4.373 0 0 0-.772-.604c.719-.378 1.36-.815 1.806-1.408.699-.916 1.178-2.304 1.178-3.641 0-1.922-.659-3.464-1.986-4.41-.843-.605-1.953-.904-3.205-1.108a.567.567 0 0 0-.608.323L23.578 8.61a.564.564 0 0 0 .225.727c.244.141.477.329.709.523a.49.49 0 0 0 0 .02c.286.236.578.86.578 1.623-.09 1.495-1.652 1.46-2.569 1.467h-1.515V5.564A.55.55 0 0 0 20.457 5h-4.889a.566.566 0 0 0-.06 0z"/><path style="fill:#4f4f4f" d="M15.508 4a.567.567 0 0 0-.508.564v17.381c.33.032.666.055 1.018.055 2.09 0 3.768-.598 4.988-1.38v-3.563h1.348c.692 0 1.165.15 1.519.396.685.812.907 2.13 1.031 3.465.127 1.36.041 2.478.041 2.478a.563.563 0 0 0 .567.604h4.855a.567.567 0 0 0 .569-.523c.105-1.41-.083-3.147-.446-4.694-.356-1.516-.819-2.822-1.662-3.525-.017-.017-.024-.044-.04-.06a4.373 4.373 0 0 0-.772-.604c.719-.378 1.36-.815 1.806-1.408C30.521 12.27 31 10.882 31 9.545c0-1.922-.659-3.464-1.986-4.41-.843-.605-1.953-.904-3.205-1.108a.567.567 0 0 0-.608.323L23.578 7.61a.564.564 0 0 0 .225.727c.244.141.477.329.709.523a.49.49 0 0 0 0 .02c.286.236.578.86.578 1.623-.09 1.495-1.652 1.46-2.569 1.467h-1.515V4.564A.55.55 0 0 0 20.457 4h-4.889a.566.566 0 0 0-.06 0z"/><path style="opacity:.1;fill:#fff" d="M15.508 4a.567.567 0 0 0-.508.564v1A.567.567 0 0 1 15.508 5a.566.566 0 0 1 .06 0h4.889a.55.55 0 0 1 .549.564v-1A.55.55 0 0 0 20.457 4h-4.889a.566.566 0 0 0-.06 0zm10.113.027a.566.566 0 0 0-.42.323L23.578 7.61a.558.558 0 0 0 .162.672l1.461-2.933a.567.567 0 0 1 .608-.323c1.252.204 2.362.503 3.205 1.108 1.172.835 1.82 2.136 1.957 3.752.006-.115.029-.228.029-.342 0-1.922-.659-3.464-1.986-4.41-.843-.605-1.953-.904-3.205-1.108a.576.576 0 0 0-.188 0zm-.605 6.85c-.316 1.104-1.665 1.088-2.495 1.094h-1.515v1h1.515c.917-.007 2.48.028 2.569-1.467 0-.225-.031-.433-.074-.627zm3.728 4.281c-.23.154-.472.301-.728.436.271.168.532.367.771.603.017.017.024.044.041.06.843.704 1.306 2.01 1.662 3.526.252 1.072.41 2.229.453 3.31.052-1.336-.12-2.896-.453-4.31-.356-1.516-.819-2.822-1.662-3.525-.017-.017-.024-.044-.04-.06-.015-.015-.03-.026-.044-.04zm-3.78 7.72c-.007.244-.019.518-.019.518a.563.563 0 0 0 .028.196c.001-.21 0-.446-.008-.713z"/></svg>
